X:1
T:Cung Chúc Trinh Vương
T:Cung Chúc Trinh Vương
T:Sáng tác: Hoài Đức
T:Bản đệm đàn: Ngô Tử
C:Hoài Đức
%%score ( 1 2 ) { 3 | 4 }
L:1/8
Q:1/4=60
M:2/4
K:F
V:1 treble nm="Voice"
V:2 treble 
V:3 treble nm="Organ"
V:4 bass 
V:1
"^\n\n" z4 |"Dm" z4 |"Bb" z4 |"Gm" z4 |"Am" z4 |"Gm" z4 |"F" z4 |"Bb""Am" z4 |"Dm" z4 || %9
w: |||||||||
"Dm"[Q:1/4=60] A2 cA |"F" A3 G |"Bb" FE"A7" GF |"Dm" D3 D |"F" AG Ac |"Bb" d2 cf |"Gm" d2 cd/c/ | %16
w: Cung chúc Trinh|Vương không|hề * nhiễm tội|truyền. Thật|Mẹ là Mẹ Thiên|Chúa Mẹ khiết|trinh trọn * *|
"A" A4 |"Dm" D2 FD |"Dm" D3 C |"Bb" DF cA |"Am" A2 Ac |"Dm" dc AF |"F" A2 GA |"Bb" F2"A" E2 | %24
w: đời.|Cung chúc Trinh|Vương là|kho * tích ơn|thiêng. Mẹ *|đã hy sinh hiệp|thông để cứu|chuộc nhân|
"Dm" D4 ||"Dm" D2 FG |"F" A2 GF |"A7" GF Ac |"Dm" d4 |"Dm" d2 AG |"Bb" F2 GA |"C" G2 cd |"F" A4 | %33
w: loại.|Mẹ Ma- ri-|a ai là|không được Mẹ thương|đến.|Khốn thay nhân|loại mê đắm|nên lãng *|quên.|
"Dm" D2 FG |"F" A2 GF |"A7" GF Ac | [Fd]4 |"Dm" d2 AG |"Bb" F2 GA |"Bb" F2"A" EF |"Dm" D4 || %41
w: Mẹ Ma- ri-|a con nguyện|xin đền tạ yêu|mến.|Muốn hy sinh|nhiều yên ủi|Mẹ khỏi ưu|phiền.|
"Dm" z4 |"Gm" z4 |"A""A7" z4 |"Dm" z4 |] %45
w: ||||
V:2
 x4 | x4 | x4 | x4 | x4 | x4 | x4 | x4 | x4 || x4 | x4 | x4 | x4 | x4 | x4 | x4 | x4 | x4 | x4 | %19
 x4 | x4 | x4 | x4 | x4 | x4 || D2 FE | F2 ED | ED FE | F2 z2 | F2 FE | D2 EF | E2 AB | F4 | %33
 D2 FE | F2 ED | ED FE | x4 | F2 FE | D2 EF | D2 ^CD | D4 || x4 | x4 | x4 | x4 |] %45
V:3
 z2 z D | AG Ac | d2 cd/f/ | d2 cd | A4 | GF GA | c2 AG | F2 E/F/G/A/ | [DFA]4 || A2 cA | A3 G | %11
 [DFB]2 [EG]2 | D4 | [FA]3 c | [FBd]2 [FBd]2 | [GBd]2 cd | AG FE | D2 [DF]2 | [DFA]4 | [DFB]4 | %20
 [CEA]2 Ac | [FAd]4 | [CFA]4 | [DF]2 [^CE]2 | DG/A/ F/A/E/G/ || D2 F!2!!4![EG] | %26
 !3!!5![FA]2 !2!!4![EG]!1!!3![DF] | !2!!4![EG]2 !3!!5![FA]2 | d/f/d/c/ A/G/A/c/ | [Fd]2 AG | %30
 [DF]2 [EG][FA] | [EG]2 [Gc]2 | AG FE | D2 F!4
2
![EG] | !5
3
![FA]2 !4
2
![EG]!3
1
![DF] | %35
 !4
2
![EG]2 !5
3
![FA]2 |"Dm" d/f/d/c/ A/G/A/c/ | [Fd]2 AG | !5
3
![FA]2 !4
2
![EG]!5
3
![FA] | %39
 !4
2
![DF]2 !3
1
![^CE]!4
1
![CF] | D4 || D2 EF | G2 FE | AG FE | D4 |] %45
V:4
 z4 | D,3 C, | B,,3 A,, | G,,4 | A,,C, E,A, | G,,2 D,2 | F,,2 C,2 | B,,2 A,/G,/F,/E,/ | D,4 || %9
 D,3 E, | F,2 G,A, | B,2 A,E, | D,C, D,E, | F,2 G,A, | B,3 A, | G,3 B, | A,3 A,, | D,3 E, | %18
 F,E, D,C, | B,,D, F,G, | A,G, F,E, | D,C, D,E, | F,2 G,A, | B,2 A,2 | D,4 || D,F, A,D | %26
 F,,A,, C,F, | A,,C, E,A, | D,F, A,D | D,F, A,D | B,,D, F,B, | C,E, G,C | F,4 | D,F, A,D | %34
 F,,A,, C,F, | A,,C, E,A, | D,F, A,D | D,F, A,D | B,,D, F,B, | [B,,B,]2 [A,,A,]2 | D,F, A,D || %41
 D,3 F, | G,4 | A,4 | D,4 |] %45

